!!!SOCIAL_FUNCTION:	war songs
!!!PDT:	1909
!!!OTL: No_131_The_Shifting_Clouds.krn
!!!REG: Great_Lakes
!!!LANG: Non-Tone
!!!LING_GROUP: Algonquin
**kern
*staff1
=1-
*clefF4
*k[f#c#g#]
*M3/4
4e\
4e\
16c#\LK
8.B\J
=2
4e\
2e\
=3||
*M2/4
8c#\L
8e\J
8c#\L
8B\J
=4
8A\L
8A\J
4A\
=5
4.A\
8A\
=6
8A\L
8A\J
8A\L
8c#\J
=7
2c#\
=8
8c#\L
8e\J
(8c#\L
8B\J)
=9
8A\L
8A\J
[4A\
=10||
*M4/4
2.A\]
8c#\L
8A\J
=11
8F#\L
[8A\J
2A\]
8F#\L
8A\J
=12||
*M2/4
8F#\L
8E\J
8E\L
8E\J
=13||
*M3/4
2.E\
=14||
*M2/4
8E\L
8E\J
8E/L
8C#/J
=15||
*M3/4
8E\L
[8E\J
2E\]
=16||
*M2/4
8C#/L
8E/J
8C#/L
8BB/J
=17
8AA/L
8AA/J
[4AA/
=18
2AA/]
==
*-
